X: 92
T:the Kitchen Girl
R:Reel
O:USA
M:4/4
K:AMix
a4 g4|efed c2cd |1 e2f2 gaba|g2e2 e2AA:|2\
e2A2 efed|c2A2 A4:|
K:Am
c4 B4 | ABAG E2EG|A2B2 c2d2|e3f edcB|\
c4B4|ABAG E2EE| cBAc BAG2| A8 :|

